X: 20719
T: Johnny Cope
R: polka
M: 2/4
K: Fmajor
|:G4G3/2A/ B/c3/2|d2G2A3/2G/ F/D3/2|
|:B3c B2B,2|B3/2c/ d/e3/2 f4|A2G3/2F/ F2G3/2c/|
|:G2D2G3/2A/ =B/c3/2|d3/2c/ B/A3/2 c3/2B/ A/G3/2|
|:g4g2f/g3/2|a2g2a3/2g/ f/d3/2|f4f2f3/2g/|a2f2f/a3/2|
g4g2f/g3/2|a2f2g2d2|f2c2d3/2c/ B/A3/2|G4G,4:|
|:G3/2^F/ G/A3/2 G3/2A/ B/c3/2|d3/2_e/ d/c3/2 B3/2A/ B/G3/2|
|:d3/2B/ G/B3/2 d3/2B/ G/B3/2|G3/2B/ d/g3/2 b3/2g/ d/B3/2|

